docgen/assets/img/open-doc-menu_icon.svg

<?xml version="1.0" encoding="UTF-8"?>
<svg width="100px" height="67px" viewBox="0 0 100 67" version="1.1" xmlns="http://www.w3.org/2000/svg" xmlns:xlink="http://www.w3.org/1999/xlink">
    <!-- Generator: Sketch 41 (35326) - http://www.bohemiancoding.com/sketch -->
    <title>Combined Shape</title>
    <desc>Created with Sketch.</desc>
    <defs></defs>
    <g id="Page-1" stroke="none" stroke-width="1" fill="none" fill-rule="evenodd">
        <path d="M86.2071514,37.3007005 L4.05957638,37.3007005 C1.81753425,37.3007005 0,35.4777543 0,33.2392307 C0,30.9961429 1.82105154,29.1777609 4.05957638,29.1777609 L86.4046865,29.1777609 L82.5818376,25.354912 C80.994171,23.7672455 80.9961306,21.1911698 82.5790058,19.6082945 C84.1651085,18.0221919 86.7313137,18.0168167 88.3256233,19.6111263 L98.5526452,29.8381482 C98.9561893,30.2416923 99.2570362,30.7090921 99.455329,31.207808 C99.8017104,31.8058004 100,32.4998462 100,33.2392307 C100,34.2500494 99.6301921,35.1746214 99.0190214,35.8854079 C98.8828024,36.0814057 98.7273476,36.2680758 98.5526452,36.4427782 L88.3256233,46.6698 C86.7313137,48.2641097 84.1651085,48.2587345 82.5790058,46.6726318 C80.9961306,45.0897566 80.994171,42.5136809 82.5818376,40.9260143 L86.2071514,37.3007005 Z M-7.10542736e-15,4.06146982 C-7.10542736e-15,1.81838198 1.81436729,0 4.06588258,0 L54.4157332,0 C56.6612581,0 58.4816157,1.82294621 58.4816157,4.06146982 C58.4816157,6.30455767 56.6672485,8.12293965 54.4157332,8.12293965 L4.06588258,8.12293965 C1.82035763,8.12293965 -7.10542736e-15,6.29999344 -7.10542736e-15,4.06146982 Z M-7.10542736e-15,18.6503503 C-7.10542736e-15,16.4072624 1.81436729,14.5888804 4.06588258,14.5888804 L54.4157332,14.5888804 C56.6612581,14.5888804 58.4816157,16.4118266 58.4816157,18.6503503 C58.4816157,20.8934381 56.6672485,22.7118201 54.4157332,22.7118201 L4.06588258,22.7118201 C1.82035763,22.7118201 -7.10542736e-15,20.8888739 -7.10542736e-15,18.6503503 Z M-7.10542736e-15,47.8281111 C-7.10542736e-15,45.5850233 1.81436729,43.7666413 4.06588258,43.7666413 L54.4157332,43.7666413 C56.6612581,43.7666413 58.4816157,45.5895875 58.4816157,47.8281111 C58.4816157,50.071199 56.6672485,51.889581 54.4157332,51.889581 L4.06588258,51.889581 C1.82035763,51.889581 -7.10542736e-15,50.0666347 -7.10542736e-15,47.8281111 Z M-7.10542736e-15,62.4169916 C-7.10542736e-15,60.1739037 1.81436729,58.3555217 4.06588258,58.3555217 L54.4157332,58.3555217 C56.6612581,58.3555217 58.4816157,60.178468 58.4816157,62.4169916 C58.4816157,64.6600794 56.6672485,66.4784614 54.4157332,66.4784614 L4.06588258,66.4784614 C1.82035763,66.4784614 -7.10542736e-15,64.6555152 -7.10542736e-15,62.4169916 Z" id="Combined-Shape" fill="#FFFFFF"></path>
    </g>
</svg>

<svg width="100" height="67" viewBox="0 0 100 67" xmlns="http://www.w3.org/2000/svg"><title>Combined Shape</title><path d="M86.207 37.3H4.06a4.062 4.062 0 0 1 0-8.122h82.345l-3.823-3.823a4.066 4.066 0 0 1-.003-5.747 4.058 4.058 0 0 1 5.746.003L98.553 29.84c.403.404.704.87.902 1.37.347.598.545 1.292.545 2.03 0 1.012-.37 1.937-.98 2.647a4.224 4.224 0 0 1-.467.558L88.326 46.67a4.057 4.057 0 0 1-5.747.003 4.066 4.066 0 0 1 .002-5.747l3.625-3.625zM0 4.06A4.06 4.06 0 0 1 4.066 0h50.35a4.06 4.06 0 1 1 0 8.123H4.066A4.067 4.067 0 0 1 0 4.06zm0 14.59a4.058 4.058 0 0 1 4.066-4.06h50.35a4.06 4.06 0 1 1 0 8.122H4.066A4.066 4.066 0 0 1 0 18.65zm0 29.178a4.058 4.058 0 0 1 4.066-4.06h50.35a4.06 4.06 0 1 1 0 8.122H4.066A4.067 4.067 0 0 1 0 47.828zm0 14.59a4.06 4.06 0 0 1 4.066-4.062h50.35a4.06 4.06 0 1 1 0 8.122H4.066A4.065 4.065 0 0 1 0 62.418z" fill="#FFF" fill-rule="evenodd"/></svg>
